X:16002
T:Peggy Perkins
R:Reel
C:Trad.
S:George Spencer m/s, Leeds,1831
O:Leeds, England
M:2/4
L:1/16
Q:1/4=70
K:D
A2|"D"dfdA fgfd|a2a2 a2f2|"Em"gage "D"fgfd|"A"e2e2 e2A2|
"D"dedA fgfd|a2a2 a2f2|"Em"gage "Bm"faec|"D"d2d2 d2:|
|:z2|"D"ABcd "Em"efge|"D"f2d2 d4|"Em"gage "D"fgfd|"A"cdec "D"A2 z2|
"D"ABcd "Em"efge|"D"f2d2 d4|"Em"efge "A"cdec|"D"d2d2 d2:|

